Obsidian-SemiLight/actions/22s/auto-type.svg

<svg viewBox="0 0 22 22" xmlns="http://www.w3.org/2000/svg"><path d="m5 3v1h2v14h-2v1h5v-1h-2v-14h2v-1zm7.765625 2-.765625.6054688 4.707031 5.3945312-4.707031 5.394531.765625.605469 5.234375-6z" fill="#4d4d4d"/></svg>

<svg xmlns="http://www.w3.org/2000/svg" viewBox="0 0 22 22">
  <defs id="defs3051">
    <style type="text/css" id="current-color-scheme">
      .ColorScheme-Text {
        color:#4d4d4d;
      }
      </style>
  </defs>
 <path 
     style="fill:currentColor;fill-opacity:1;stroke:none" 
	 d="M 5 3 L 5 4 L 7 4 L 7 18 L 5 18 L 5 19 L 10 19 L 10 18 L 8 18 L 8 4 L 10 4 L 10 3 L 5 3 z M 12.765625 5 L 12 5.6054688 L 16.707031 11 L 12 16.394531 L 12.765625 17 L 18 11 L 12.765625 5 z "
	 class="ColorScheme-Text"
     />
</svg>
